X:1
T:Sir James, the Rose
M:4/4
L:1/4
K:G
 D| G3/2 A/2 B D| =F/2 E3/2 D B,| C D G F| G2 z c| B3/2 A/2G/2-A/2B/2-c/2|\
 d3/2 B/2 c d| B/2 A3/2 G F| D2 z c| B3/2 A/2G/2-A/2B/2-c/2| d3/2 B/2 c d|\
 B3/2 A/2 G F| D2 z D| G3/2 A/2 B D| =F E D B,| C D G3/2 F/2| G2 z||\
